static/assets/images/networks/merlin-chain-mono.svg

<svg width="255" height="256" viewBox="0 0 255 256" fill="none" xmlns="http://www.w3.org/2000/svg">
<path d="M0 233.969C6.64198 241.85 13.8745 249.217 21.6293 256C38.1596 237.556 120.864 148.324 122.161 147.768C123.912 146.532 133.385 144.163 133.591 144.678L138.122 174.958C143.271 209.769 143.065 208.945 148.317 208.945H148.368C153.569 208.945 153.584 208.945 158.1 177.532L162.219 150.652L204.027 181.549L246.66 212.961C250.161 214.712 255.001 211.417 254.898 207.297C254.898 205.237 258.502 210.284 222.872 162.187C205.984 139.323 192.185 120.578 192.391 120.578L219.886 116.458C240.893 113.266 247.278 112.236 247.999 111.721C251.603 108.94 251.603 104.511 247.896 101.731L247.887 101.724C246.866 101.01 246.839 100.991 202.586 94.5212L202.213 94.4569C196.438 93.4612 192.393 92.7639 192.494 92.4614C202.796 78.3385 213.162 64.2628 223.593 50.2348C242.026 25.4139 254.692 7.90531 254.898 7.28736C255.065 6.33956 255.008 5.36592 254.732 4.444C254.456 3.52207 253.968 2.67735 253.308 1.97715C252.648 1.27694 251.834 0.740619 250.93 0.410894C250.026 0.0811689 249.057 -0.0328438 248.102 0.0779563C247.175 0.180948 235.023 8.93524 204.439 31.5934L162.116 63.0058L160.056 48.587C154.084 8.62626 153.981 8.1113 153.26 7.08138C150.583 3.47668 146.052 3.47669 143.374 6.9784C142.756 7.80233 141.727 14.0848 138.637 35.1981L134.518 62.6968C134.518 62.7998 115.468 48.8959 92.2978 31.7993C69.231 14.5998 49.7684 0.386941 49.0476 0.180958C44.6196 -1.05494 40.0886 4.30061 42.1482 8.31728L104.346 92.7703C104.243 92.8733 92.1948 94.8302 77.4692 96.89C46.0613 101.525 46.0613 101.525 46.0613 106.777C46.0613 112.03 45.3404 111.721 80.0436 116.87L110.319 121.505C109.993 125.415 109.019 129.244 107.435 132.834C106.406 135.203 105.273 136.336 51.2101 186.39L0 233.969Z" fill="black"/>
</svg>

<svg xmlns="http://www.w3.org/2000/svg" fill="none" viewBox="0 0 255 256"><path fill="#000" d="M0 233.969A203.5 203.5 0 0 0 21.63 256c16.53-18.444 99.234-107.676 100.531-108.232 1.751-1.236 11.224-3.605 11.43-3.09l4.531 30.28c5.149 34.811 4.943 33.987 10.195 33.987h.051c5.201 0 5.216 0 9.732-31.413l4.119-26.88 41.808 30.897 42.633 31.412c3.501 1.751 8.341-1.544 8.238-5.664 0-2.06 3.604 2.987-32.026-45.11-16.888-22.864-30.687-41.609-30.481-41.609l27.495-4.12c21.007-3.192 27.392-4.222 28.113-4.737 3.604-2.781 3.604-7.21-.103-9.99l-.009-.007c-1.021-.714-1.048-.733-45.301-7.203l-.373-.064c-5.775-.996-9.82-1.693-9.719-1.996a5724 5724 0 0 1 31.099-42.226c18.433-24.821 31.099-42.33 31.305-42.948a6.177 6.177 0 0 0-6.796-7.209c-.927.103-13.079 8.857-43.663 31.515l-42.323 31.413-2.06-14.419c-5.972-39.96-6.075-40.476-6.796-41.506-2.677-3.604-7.208-3.604-9.886-.103-.618.824-1.647 7.107-4.737 28.22l-4.119 27.499c0 .103-19.05-13.801-42.22-30.898C69.23 14.6 49.768.387 49.048.181c-4.428-1.236-8.96 4.12-6.9 8.136l62.198 84.453c-.103.103-12.151 2.06-26.877 4.12-31.408 4.635-31.408 4.635-31.408 9.887s-.72 4.944 33.983 10.093l30.275 4.635a35.3 35.3 0 0 1-2.884 11.329c-1.029 2.369-2.162 3.502-56.225 53.556z"/></svg>
